img/icons/financial/shopping-bag.svg

<svg xmlns="http://www.w3.org/2000/svg" viewBox="0 0 40 48"><g data-name="Layer 2"><path data-name="Shopping Bag" d="M29 12V9a9 9 0 00-18 0v3H0l1.56 27.53a9 9 0 009 8.47h18.9a9 9 0 009-8.47L40 12zM13 9a7 7 0 0114 0v3H13zm23.44 30.41a7 7 0 01-7 6.59h-18.9a7 7 0 01-7-6.59L2.06 14H11v9h2v-9h14v9h2v-9h8.94z" fill="#231f20"/></g></svg>

<svg xmlns="http://www.w3.org/2000/svg" viewBox="0 0 40 48"><defs><style>.cls-1{fill:#231f20;}</style></defs><title>Shopping Bag</title><g id="Layer_2" data-name="Layer 2"><g id="Icons"><g id="Shopping"><path id="Shopping_Bag" data-name="Shopping Bag" class="cls-1" d="M29,12V9A9,9,0,0,0,11,9v3H0L1.56,39.53a9,9,0,0,0,9,8.47H29.46a9,9,0,0,0,9-8.47L40,12ZM13,9A7,7,0,0,1,27,9v3H13ZM36.44,39.41a7,7,0,0,1-7,6.59H10.54a7,7,0,0,1-7-6.59L2.06,14H11v9h2V14H27v9h2V14h8.94Z"/></g></g></g></svg>
